Newaita-dark/actions/32/format-text-uppercase.svg

<svg height="32" viewBox="0 0 32 32" width="32" xmlns="http://www.w3.org/2000/svg"><g fill="#e0e0e0"><path d="m9.261719 12.15625c-2.933594 0-5.292969 1.769531-5.292969 3.96875v11.910156h2.644531v-5.292968h5.292969v5.292968h2.648438v-11.910156c0-2.199219-2.363282-3.96875-5.292969-3.96875zm0 2.648438c1.464843 0 2.644531.589843 2.644531 1.320312v3.96875h-5.292969v-3.96875c0-.730469 1.183594-1.320312 2.648438-1.320312zm0 0"/><path d="m17.859375 10.835938h9.261719l-4.628906-6.617188zm0 0"/><path d="m17.199219 12.15625v15.878906h4.632812c3.296875 0 5.953125-2.214844 5.953125-4.960937v-.664063c0-1.71875-1.039062-3.226562-2.625-4.117187.40625-.621094.640625-1.367188.640625-2.167969 0-2.199219-1.773437-3.96875-3.96875-3.96875zm2.644531 2.648438h1.988281c.730469 0 1.320313.589843 1.320313 1.320312 0 .734375-.589844 1.324219-1.320313 1.324219h-1.988281zm0 5.289062h1.988281c1.832031 0 3.304688 1.183594 3.304688 2.648438 0 1.464843-1.472657 2.644531-3.304688 2.644531h-1.988281zm0 0"/></g></svg>

<?xml version="1.0" encoding="UTF-8"?>
<svg xmlns="http://www.w3.org/2000/svg" xmlns:xlink="http://www.w3.org/1999/xlink" width="32px" height="32px" viewBox="0 0 32 32" version="1.1">
<g id="surface1">
<path style=" stroke:none;fill-rule:nonzero;fill:rgb(87.843138%,87.843138%,87.843138%);fill-opacity:1;" d="M 9.261719 12.15625 C 6.328125 12.15625 3.96875 13.925781 3.96875 16.125 L 3.96875 28.035156 L 6.613281 28.035156 L 6.613281 22.742188 L 11.90625 22.742188 L 11.90625 28.035156 L 14.554688 28.035156 L 14.554688 16.125 C 14.554688 13.925781 12.191406 12.15625 9.261719 12.15625 Z M 9.261719 14.804688 C 10.726562 14.804688 11.90625 15.394531 11.90625 16.125 L 11.90625 20.09375 L 6.613281 20.09375 L 6.613281 16.125 C 6.613281 15.394531 7.796875 14.804688 9.261719 14.804688 Z M 9.261719 14.804688 "/>
<path style=" stroke:none;fill-rule:nonzero;fill:rgb(87.843138%,87.843138%,87.843138%);fill-opacity:1;" d="M 17.859375 10.835938 L 27.121094 10.835938 L 22.492188 4.21875 Z M 17.859375 10.835938 "/>
<path style=" stroke:none;fill-rule:nonzero;fill:rgb(87.843138%,87.843138%,87.843138%);fill-opacity:1;" d="M 17.199219 12.15625 L 17.199219 28.035156 L 21.832031 28.035156 C 25.128906 28.035156 27.785156 25.820312 27.785156 23.074219 L 27.785156 22.410156 C 27.785156 20.691406 26.746094 19.183594 25.160156 18.292969 C 25.566406 17.671875 25.800781 16.925781 25.800781 16.125 C 25.800781 13.925781 24.027344 12.15625 21.832031 12.15625 Z M 19.84375 14.804688 L 21.832031 14.804688 C 22.5625 14.804688 23.152344 15.394531 23.152344 16.125 C 23.152344 16.859375 22.5625 17.449219 21.832031 17.449219 L 19.84375 17.449219 Z M 19.84375 20.09375 L 21.832031 20.09375 C 23.664062 20.09375 25.136719 21.277344 25.136719 22.742188 C 25.136719 24.207031 23.664062 25.386719 21.832031 25.386719 L 19.84375 25.386719 Z M 19.84375 20.09375 "/>
</g>
</svg>
